X:1
T:Title
L:1/8
M:2/4
K:D
V:1 treble nm="Grand Piano, Staff"
V:1
 z2 D2 | F2 D2 | D2 D2 | EF G2 | E2 C2 | E2 C2 | C2 C2 | DE F2 | D2 D2 | F2 D2 | D2 D2 | EF G2 | %12
 E2 A2 | A2 A2 | A4- | A2 z2 |] %16

